src/icons/mail.svg

<?xml version="1.0" encoding="UTF-8"?>
<svg width="19px" height="13px" viewBox="0 0 19 13" version="1.1" xmlns="http://www.w3.org/2000/svg" xmlns:xlink="http://www.w3.org/1999/xlink">
    <!-- Generator: Sketch 48.1 (47250) - http://www.bohemiancoding.com/sketch -->
    <title>mail</title>
    <desc>Created with Sketch.</desc>
    <defs></defs>
    <g id="Support" stroke="none" stroke-width="1" fill="none" fill-rule="evenodd" transform="translate(-994.000000, -102.000000)">
        <g transform="translate(974.000000, 47.000000)" fill="#5EABDD" id="mail">
            <g transform="translate(20.000000, 55.000000)">
                <g id="mail-copy">
                    <g id="Group" transform="translate(2.968750, 6.217391)" fill-rule="nonzero">
                        <path d="M11.9397188,3.67956522 C11.8666875,3.67956522 11.7936563,3.65413043 11.7366563,3.60269565 L8.32021875,0.551652174 C8.200875,0.445391304 8.1949375,0.266217391 8.30715625,0.152608696 C8.419375,0.0378695652 8.60640625,0.0327826087 8.7269375,0.140173913 L12.143375,3.19121739 C12.2627188,3.29747826 12.2686563,3.47665217 12.1564375,3.59026087 C12.0976562,3.6496087 12.0192812,3.67956522 11.9397188,3.67956522 Z" id="Shape"></path>
                        <path d="M0.5355625,3.67956522 C0.45659375,3.67956522 0.377625,3.6496087 0.31884375,3.59026087 C0.206625,3.47665217 0.2125625,3.29747826 0.33190625,3.19121739 L3.74953125,0.140173913 C3.86946875,0.0339130435 4.0576875,0.0384347826 4.1693125,0.152608696 C4.28153125,0.266217391 4.27559375,0.445391304 4.15625,0.551652174 L0.738625,3.60269565 C0.681625,3.65413043 0.60859375,3.67956522 0.5355625,3.67956522 Z" id="Shape"></path>
                    </g>
                    <path d="M16.929,12.7337826 L1.484375,12.7337826 C0.6661875,12.7337826 0,12.1001739 0,11.3207391 L0,1.68547826 C0,0.906043478 0.6661875,0.272434783 1.484375,0.272434783 L16.929,0.272434783 C17.7471875,0.272434783 18.413375,0.906043478 18.413375,1.68547826 L18.413375,11.3207391 C18.413375,12.1001739 17.7471875,12.7337826 16.929,12.7337826 Z M1.484375,0.837652174 C0.99334375,0.837652174 0.59375,1.21804348 0.59375,1.68547826 L0.59375,11.3207391 C0.59375,11.7881739 0.99334375,12.1685652 1.484375,12.1685652 L16.929,12.1685652 C17.4200312,12.1685652 17.819625,11.7881739 17.819625,11.3207391 L17.819625,1.68547826 C17.819625,1.21804348 17.4200312,0.837652174 16.929,0.837652174 L1.484375,0.837652174 Z" id="Shape" fill-rule="nonzero"></path>
                    <path d="M9.2066875,7.92321739 C8.81184375,7.92321739 8.417,7.79830435 8.1165625,7.54904348 L0.4928125,1.21804348 C0.3693125,1.11573913 0.35625,0.937130435 0.46371875,0.819 C0.572375,0.701434783 0.75940625,0.690695652 0.88290625,0.791869565 L8.50665625,7.12230435 C8.8860625,7.43713043 9.5273125,7.43713043 9.906125,7.12230435 L17.520375,0.802043478 C17.6432812,0.69973913 17.8303125,0.711043478 17.9395625,0.829173913 C18.0470312,0.947304348 18.0345625,1.12534783 17.9110625,1.22821739 L10.2968125,7.54847826 C9.99578125,7.79830435 9.60153125,7.92321739 9.2066875,7.92321739 Z" id="Shape" fill-rule="nonzero"></path>
                </g>
            </g>
        </g>
    </g>
</svg>

<?xml version="1.0" encoding="utf-8"?>
<!-- Generator: Adobe Illustrator 21.1.0, SVG Export Plug-In . SVG Version: 6.00 Build 0)  -->
<svg version="1.1" id="Слой_1" xmlns="http://www.w3.org/2000/svg" xmlns:xlink="http://www.w3.org/1999/xlink" x="0px" y="0px"
	 viewBox="0 0 19 13" enable-background="new 0 0 19 13" xml:space="preserve">
<title>mail</title>
<desc>Created with Sketch.</desc>
<g id="Support" transform="translate(-994.000000, -102.000000)">
	<g id="mail" transform="translate(974.000000, 47.000000)">
		<g transform="translate(20.000000, 55.000000)">
			<g id="mail-copy">
				<g id="Group" transform="translate(2.968750, 6.217391)">
					<path id="Shape" fill="#5EABDD" d="M11.9,3.7c-0.1,0-0.1,0-0.2-0.1L8.3,0.6c-0.1-0.1-0.1-0.3,0-0.4C8.4,0,8.6,0,8.7,0.1
						l3.4,3.1c0.1,0.1,0.1,0.3,0,0.4C12.1,3.6,12,3.7,11.9,3.7z"/>
					<path id="Shape_1_" fill="#5EABDD" d="M0.5,3.7c-0.1,0-0.2,0-0.2-0.1c-0.1-0.1-0.1-0.3,0-0.4l3.4-3.1C3.9,0,4.1,0,4.2,0.2
						c0.1,0.1,0.1,0.3,0,0.4L0.7,3.6C0.7,3.7,0.6,3.7,0.5,3.7z"/>
				</g>
				<path id="Shape_2_" fill="#5EABDD" d="M16.9,12.7H1.5c-0.8,0-1.5-0.6-1.5-1.4V1.7c0-0.8,0.7-1.4,1.5-1.4h15.4
					c0.8,0,1.5,0.6,1.5,1.4v9.6C18.4,12.1,17.7,12.7,16.9,12.7z M1.5,0.8C1,0.8,0.6,1.2,0.6,1.7v9.6c0,0.5,0.4,0.8,0.9,0.8h15.4
					c0.5,0,0.9-0.4,0.9-0.8V1.7c0-0.5-0.4-0.8-0.9-0.8H1.5z"/>
				<path id="Shape_3_" fill="#5EABDD" d="M9.2,7.9c-0.4,0-0.8-0.1-1.1-0.4L0.5,1.2c-0.1-0.1-0.1-0.3,0-0.4c0.1-0.1,0.3-0.1,0.4,0
					l7.6,6.3c0.4,0.3,1,0.3,1.4,0l7.6-6.3c0.1-0.1,0.3-0.1,0.4,0c0.1,0.1,0.1,0.3,0,0.4l-7.6,6.3C10,7.8,9.6,7.9,9.2,7.9z"/>
			</g>
		</g>
	</g>
</g>
</svg>
